X: 1
T:Killavel Jig, The
M:6/8
L:1/8
R:Double Jig
K:Edor
BEE BEE|Bdf edB|BAF FEF|DFA dBA|!
BEE BEE|Bdf edB|BAF dAF|1FED EFA:|2FED E2B|!
|:e2f gfe|~f3 edB|BAF FEF|DFA dBA|!
Bef gfe|~f3 edB|BAF dAF|1FED E2B:|2FED EFA|]!
